source/img/svg/icon_gift.svg

<svg width="80" height="84" viewBox="0 0 80 84" fill="none" xmlns="http://www.w3.org/2000/svg">
<path d="M65.6571 36.7572H14.3908C12.5914 36.7572 11.1277 35.2941 11.1277 33.4953V23.7228C11.1277 21.9241 12.5914 20.4603 14.3908 20.4603H65.6564C67.4552 20.4603 68.9183 21.9241 68.9183 23.7228V33.4959C68.9189 35.2941 67.4558 36.7572 65.6571 36.7572ZM14.3908 22.9603C13.9771 22.9603 13.6277 23.3097 13.6277 23.7228V33.4959C13.6277 33.9159 13.9702 34.2578 14.3908 34.2578H65.6564C66.0764 34.2578 66.4183 33.9159 66.4183 33.4959V23.7228C66.4183 23.3091 66.0689 22.9603 65.6564 22.9603H14.3908Z" fill="white"/>
<path d="M58.5075 70.236H21.5375C18.0737 70.236 15.2556 67.4185 15.2556 63.9541V35.5072C15.2556 34.8172 15.8156 34.2572 16.5056 34.2572C17.1956 34.2572 17.7556 34.8172 17.7556 35.5072V63.9541C17.7556 66.0397 19.4525 67.736 21.5375 67.736H58.5075C60.5919 67.736 62.2881 66.0397 62.2881 63.9541V35.5072C62.2881 34.8172 62.8481 34.2572 63.5381 34.2572C64.2281 34.2572 64.7881 34.8172 64.7881 35.5072V63.9541C64.7881 67.4185 61.9706 70.236 58.5075 70.236Z" fill="white"/>
<path d="M40.0232 70.236C39.3332 70.236 38.7732 69.6766 38.7732 68.986V35.5072C38.7732 34.8172 39.3332 34.2572 40.0232 34.2572C40.7132 34.2572 41.2732 34.8172 41.2732 35.5072V68.9853C41.2732 69.6766 40.7138 70.236 40.0232 70.236Z" fill="white"/>
<path d="M24.4218 22.956C20.5093 20.836 19.0493 15.9285 21.1674 12.0154C23.2843 8.10414 28.1911 6.64352 32.1055 8.75977C38.0686 11.9898 41.2886 21.001 41.4224 21.3829L39.0643 22.2123C39.0343 22.1273 36.0261 13.7266 30.9161 10.9585C28.213 9.49727 24.8268 10.506 23.3661 13.2054C21.9043 15.9073 22.9118 19.2948 25.6136 20.7579L24.4218 22.956Z" fill="white"/>
<path d="M55.6218 22.956L54.4318 20.7572C55.7411 20.0478 56.6955 18.8722 57.1205 17.4466C57.5449 16.0203 57.388 14.5141 56.6786 13.206C55.9711 11.8966 54.7961 10.9428 53.3705 10.5185C51.9443 10.0941 50.4393 10.2503 49.1305 10.9585C44.0205 13.726 41.0124 22.1266 40.9824 22.2116L38.6243 21.3822C38.758 21.0003 41.9774 11.9891 47.9405 8.7597C49.8355 7.73345 52.0186 7.5072 54.0836 8.1222C56.1505 8.73658 57.8524 10.1197 58.878 12.0153C59.9049 13.9103 60.1318 16.0922 59.5168 18.1591C58.9011 20.2253 57.518 21.9285 55.6218 22.956Z" fill="white"/>
<path d="M63.5381 53.4972H16.5056C15.8156 53.4972 15.2556 52.9372 15.2556 52.2472C15.2556 51.5572 15.8156 50.9972 16.5056 50.9972H63.5381C64.2281 50.9972 64.7881 51.5572 64.7881 52.2472C64.7881 52.9372 64.2287 53.4972 63.5381 53.4972Z" fill="white"/>
</svg>

<svg width="80" height="84" fill="none" xmlns="http://www.w3.org/2000/svg"><path d="M65.657 36.757H14.391a3.266 3.266 0 01-3.263-3.262v-9.772a3.267 3.267 0 013.263-3.263h51.265a3.266 3.266 0 013.262 3.263v9.773a3.264 3.264 0 01-3.26 3.261zM14.391 22.96a.773.773 0 00-.763.763v9.773c0 .42.342.762.763.762h51.265c.42 0 .762-.342.762-.762v-9.773a.772.772 0 00-.762-.763H14.391z" fill="#fff"/><path d="M58.508 70.236h-36.97a6.289 6.289 0 01-6.282-6.282V35.507a1.25 1.25 0 012.5 0v28.447a3.786 3.786 0 003.782 3.782h36.97a3.786 3.786 0 003.78-3.782V35.507a1.25 1.25 0 012.5 0v28.447a6.288 6.288 0 01-6.28 6.282z" fill="#fff"/><path d="M40.023 70.236c-.69 0-1.25-.56-1.25-1.25V35.507a1.25 1.25 0 012.5 0v33.478c0 .692-.56 1.251-1.25 1.251zM24.422 22.956c-3.913-2.12-5.373-7.027-3.255-10.94 2.117-3.912 7.024-5.372 10.938-3.256C38.07 11.99 41.29 21 41.422 21.383l-2.358.83c-.03-.086-3.038-8.486-8.148-11.255a5.578 5.578 0 00-7.55 2.247 5.58 5.58 0 002.248 7.553l-1.192 2.198z" fill="#fff"/><path d="M55.622 22.956l-1.19-2.199a5.541 5.541 0 002.688-3.31 5.53 5.53 0 00-.441-4.241 5.527 5.527 0 00-3.309-2.688 5.533 5.533 0 00-4.24.44c-5.11 2.768-8.118 11.169-8.148 11.254l-2.358-.83C38.758 21 41.977 11.99 47.94 8.76a8.015 8.015 0 016.144-.638 8.01 8.01 0 014.794 3.893 8.013 8.013 0 01.639 6.144 8.028 8.028 0 01-3.895 4.797zM63.538 53.497H16.506a1.25 1.25 0 010-2.5h47.032a1.25 1.25 0 010 2.5z" fill="#fff"/></svg>
